assets/bale.svg

<svg width="53" height="52" viewBox="0 0 53 52" fill="none" xmlns="http://www.w3.org/2000/svg">
<g clip-path="url(#clip0_212_4)">
<path d="M0.75 24C0.75 12.686 0.75 7.029 4.265 3.515C7.78 0.00100017 13.436 0 24.75 0H28.75C40.064 0 45.721 0 49.235 3.515C52.749 7.03 52.75 12.686 52.75 24V28C52.75 39.314 52.75 44.971 49.235 48.485C45.72 51.999 40.064 52 28.75 52H24.75C13.436 52 7.779 52 4.265 48.485C0.751 44.97 0.75 39.314 0.75 28V24Z" fill="url(#paint0_linear_212_4)"/>
<path d="M26.639 44.5529C25.152 44.4789 23.68 44.2229 22.256 43.7889L21.757 43.6169C16.998 42.0509 12.963 38.2769 11.021 33.5759C10.2249 31.6578 9.77236 29.6147 9.68404 27.5399C9.67204 27.3039 9.66604 24.1379 9.66504 18.9289L9.76904 10.2569C10.007 9.50086 10.665 8.98986 11.483 8.92286C12.108 8.87186 12.523 9.05386 13.865 9.96186C14.7706 10.5773 15.6602 11.2158 16.533 11.8769C17.001 12.2289 17.057 12.2649 17.092 12.2439L17.612 11.9019C18.4153 11.3673 19.26 10.8978 20.138 10.4979C21.4281 9.91459 22.7834 9.48821 24.175 9.22786C25.175 9.03586 26.19 8.93686 27.207 8.93086C28.901 8.90686 30.293 9.06586 31.89 9.46586C37.164 10.7849 41.604 14.5339 43.817 19.5389C44.548 21.1929 45.072 23.1489 45.221 24.7719L45.3 25.6799C45.312 25.8359 45.322 26.2829 45.322 26.6739C45.322 27.8369 45.226 29.0069 45.071 29.7399C45.0453 29.868 45.0226 29.9967 45.003 30.1259C44.92 30.6879 44.685 31.5919 44.41 32.4069C44.105 33.3179 43.865 33.8909 43.394 34.8329C42.416 36.7569 41.095 38.4869 39.497 39.9379C38.843 40.5259 38.265 40.9849 37.625 41.4279C36.664 42.0889 35.683 42.6339 34.596 43.1129C33.704 43.5069 32.457 43.9139 31.474 44.1319C30.896 44.2629 30.312 44.3629 29.724 44.4319C28.7013 44.5595 27.6696 44.6003 26.64 44.5539L26.639 44.5529ZM25.733 35.7569C26.17 35.6679 26.74 35.4469 27.017 35.2559C27.231 35.1089 27.653 34.6969 30.083 32.2649L32.704 29.6609C32.729 29.6609 35.21 27.1799 35.21 27.1519C35.21 27.1239 37.647 24.7029 37.678 24.7029C37.693 24.7029 37.772 24.6329 37.853 24.5459C38.547 23.8109 38.866 23.1239 38.917 22.2479C38.956 21.6049 38.828 20.8969 38.595 20.4709C38.2618 19.8358 37.7551 19.3084 37.134 18.9499C36.717 18.7079 36.373 18.6039 35.815 18.5489C35.36 18.5029 34.793 18.5489 34.407 18.6599C34.046 18.7639 33.511 19.0669 33.14 19.3749C33.078 19.4269 31.24 21.2539 29.057 23.4359L25.089 27.4029L23.465 25.7839L21.749 24.0869C21.178 23.6399 20.485 23.3749 19.761 23.3289C19.161 23.3099 18.409 23.4629 17.943 23.6999C17.5803 23.9113 17.2504 24.1748 16.964 24.4819C16.804 24.6599 16.538 25.0119 16.533 25.0539C16.528 25.0959 16.52 25.1189 16.436 25.2919C16.234 25.7149 16.121 26.1749 16.103 26.6439C16.0825 26.8874 16.0919 27.1326 16.131 27.3739C16.198 27.8979 16.488 28.5339 16.889 29.0309C16.963 29.1249 18.33 30.5049 19.926 32.0979L23.007 35.1269C23.493 35.4839 24.022 35.7039 24.643 35.8049C24.913 35.8499 25.386 35.8289 25.734 35.7599L25.733 35.7569Z" fill="white"/>
</g>
<defs>
<linearGradient id="paint0_linear_212_4" x1="53" y1="1.55717e-06" x2="0.999999" y2="52" gradientUnits="userSpaceOnUse">
<stop stop-color="#56F3BE"/>
<stop offset="1" stop-color="#2D2A71"/>
</linearGradient>
<clipPath id="clip0_212_4">
<rect width="53" height="52" fill="white"/>
</clipPath>
</defs>
</svg>

<svg xmlns="http://www.w3.org/2000/svg" width="53" height="52" fill="none" xmlns:v="https://vecta.io/nano"><path d="M.75 24c0-11.314 0-16.971 3.515-20.485S13.436 0 24.75 0h4c11.314 0 16.971 0 20.485 3.515S52.75 12.686 52.75 24v4c0 11.314 0 16.971-3.515 20.485S40.064 52 28.75 52h-4c-11.314 0-16.971 0-20.485-3.515S.75 39.314.75 28v-4z" fill="#2fd686"/><path d="M26.639 44.553c-1.487-.074-2.959-.33-4.383-.764l-.499-.172c-4.759-1.566-8.794-5.34-10.736-10.041a17.71 17.71 0 0 1-1.337-6.036c-.012-.236-.018-3.402-.019-8.611l.104-8.672c.238-.756.896-1.267 1.714-1.334.625-.051 1.04.131 2.382 1.039a64 64 0 0 1 2.668 1.915c.468.352.524.388.559.367l.52-.342a18.1 18.1 0 0 1 2.526-1.404 17.7 17.7 0 0 1 4.037-1.27c1-.192 2.015-.291 3.032-.297 1.694-.024 3.086.135 4.683.535 5.274 1.319 9.714 5.068 11.927 10.073.731 1.654 1.255 3.61 1.404 5.233l.079.908c.012.156.022.603.022.994 0 1.163-.096 2.333-.251 3.066a8.15 8.15 0 0 0-.068.386c-.083.562-.318 1.466-.593 2.281-.305.911-.545 1.484-1.016 2.426-.978 1.924-2.299 3.654-3.897 5.105-.654.588-1.232 1.047-1.872 1.49-.961.661-1.942 1.206-3.029 1.685-.892.394-2.139.801-3.122 1.019-.578.131-1.162.231-1.75.3a18.25 18.25 0 0 1-3.084.122zm-.906-8.796c.437-.089 1.007-.31 1.284-.501.214-.147.636-.559 3.066-2.991l2.621-2.604c.025 0 2.506-2.481 2.506-2.509s2.437-2.449 2.468-2.449c.015 0 .094-.07.175-.157.694-.735 1.013-1.422 1.064-2.298.039-.643-.089-1.351-.322-1.777a3.79 3.79 0 0 0-1.461-1.521c-.417-.242-.761-.346-1.319-.401-.455-.046-1.022 0-1.408.111-.361.104-.896.407-1.267.715-.062.052-1.9 1.879-4.083 4.061l-3.968 3.967-1.624-1.619-1.716-1.697c-.571-.447-1.264-.712-1.988-.758-.6-.019-1.352.134-1.818.371a4.3 4.3 0 0 0-.979.782c-.16.178-.426.53-.431.572s-.013.065-.097.238c-.202.423-.315.883-.333 1.352a2.99 2.99 0 0 0 .028.73c.067.524.357 1.16.758 1.657.074.094 1.441 1.474 3.037 3.067l3.081 3.029c.486.357 1.015.577 1.636.678.27.045.743.024 1.091-.045z" stroke="#fff" stroke-width="2.25"/></svg>
